X:21035 
T:COME WITH ME NOW 
B:DMI.0312
Z:Nordberg/Black
R:jig
%Q:1/4=160
M:6/8
L:1/8
K:G
"D modal"
G|FDD F2d|cAA BAG|AFD F2d|cAF GAG|
FDD F2d|cAA cde|fge cAG|EDD D2:|
A|cBA fed|cAA A2B|cBA fed|cAF G2A|
cBA fed|cAA cde|fge cAG|EDD D2:|

%%%

